X:33
T:General Blakney. ThoH.033
Q:3/8=100
M:9/8
L:1/8
N:Perhaps Lieutenant-General William Blakeney(1671-1761), hero of the Siege of Minorca 1756
B:Thompson's Compleat Collection of 120 Favourite Hornpipes.
Z:Village Music Project, Simon Wilson 2016
O:England.
K:G
G2GG2A{c} B>AG|AFD- DFA cBA|BdF GBD EGB,|CcB AGFG2G,:|
|:A2D- DFA cBA|{c}B2G- GBd =fed|e2C-C2e dgb|c2A,-A,2c Bdg|
e2Cd2B,c2A,|BGB cAG FED|C2eB,2dA,2c|BGB cAFG2G,:|

